T: Emyvale, The
M: 4/4
L: 1/8
K: Ador
AD (3DDD AGEF | GEcE dEcE | AD (3FED AGEF | GEcE EDD :|AGAB c2 Bc | AGAB cGEG | AGAB c2 Bc | AGcG EDDB |AGAB c2 (3ABc | dcAc d2 cd | ecdB cBAG | (3EFG cG EDD ||Adde fdec | ABcA dBcB | Adde fdcA | GEcE EDD2 |Adde fdec | ABcd eg~g2 | afge fdcA | GEcE EDD2 ||
